!!!COM: Mozart, Wolfgang Amadeus
!!!OTL: String Quartet no. 19 in C Major ("Dissonance")
!!!OMD: Menuetto
!!!OMV: 3
!!!SCT1: K<sup>1</sup> 465
!!!SCA: Chronologisch-thematisches Verzeichnis sämtlicher Tonwerke Wolfgang Amade Mozarts (L. von Köchel; 1862, 2/1905, 3/1937, 1947)
!!!SCT2: K<sup>6</sup> 465
!!!YOR: Breitkopf & Härtel Edition
!!!ENC: Frances Bennion
!!!CDT: 1756/1/27/-1791/12/5/
!!!OCY: Österreich
!!!YEC: Copyright (c) 1994, 2000 Center for Computer Assisted Research in the Humanities
!!!YEM: Rights to all derivative editions reserved.
!!!YEM: Refer to licensing agreement for further details.
!!!YEN: United States of America
**kern	**kern	**kern	**kern
*k[]	*k[]	*k[]	*k[]
*C:	*C:	*C:	*C:
*clefC	*clefF	*clefG	*clefG
*M3/4	*M3/4	*M3/4	*M3/4
2r	2r	2r	2r
4r	4r	4r	8ee
.	.	.	8ff
=1	=1	=1	=1
2.r	2.r	2.r	8ff#
.	.	.	8gg
.	.	.	8aa
.	.	.	8gg
.	.	.	8ff
.	.	.	8dd
=2	=2	=2	=2
4A	4c	4e	4cc
4A	4c	4e	4cc
4A	4c	4e	4cc
=3	=3	=3	=3
4D	4c	4d	4ff
4D	4c	4d	4ff
4D	4c	4d	4ff
=4	=4	=4	=4
4G	4B	4d	4f
4r	4r	4r	4r
8BB	8B	8B	8B
8GG	8G	8G	8G
=5	=5	=5	=5
8C	8c	8c	8c
8GG	8G	8G	8G
8D	8d	8d	8d
8GG	8G	8G	8G
8E	8e	8e	8e
8GG	8G	8G	8G
=6	=6	=6	=6
4F	4f	4f	4f
2r	2r	4r	4r
.	.	4f	8b
.	.	.	8g
=7	=7	=7	=7
2.r	2.r	4e	8cc
.	.	.	8g
.	.	4d	8dd
.	.	.	8g
.	.	4c	8ee
.	.	.	8g
=8	=8	=8	=8
2.r	2.r	2B	8gg
.	.	.	8ff#
.	.	.	8ff
.	.	.	8dd
.	.	4c	8ee
.	.	.	8cc
=9	=9	=9	=9
2.r	2.r	8ee	4e
.	.	8dd#	.
.	.	8dd	4gg#
.	.	8b	.
.	.	8cc	4aa
.	.	8a	.
=10	=10	=10	=10
2.r	8d	4r	4d
.	8c#	.	.
.	8c	8a	4ff#
.	8A	8cc	.
.	8B	4b	4gg
.	8G	.	.
=11	=11	=11	=11
8A	4A	4r	4a
8G#	.	.	.
8G	4a	8ee	4ccc#
8E	.	8gg	.
8F#	4a	4ff#	4ddd
8D	.	.	.
=12	=12	=12	=12
2.FF#	2.A	2.c	[2.d
=13	=13	=13	=13
4GG	4G	4B	8d]
.	.	.	8e
2r	2r	2r	8f#
.	.	.	8g
.	.	.	8a
.	.	.	8b
=14	=14	=14	=14
4E	4G	4g	8cc
.	.	.	8dd
2r	2r	2r	8ee
.	.	.	8ff#
.	.	.	8gg
.	.	.	8aa
=15	=15	=15	=15
2.r	4dd	8gg	8bb
.	.	8aa	8ccc
.	4dd	8aa#	8ccc#
.	.	8bb	8ddd
.	4dd	8aa	8ccc
.	.	8ff#	8aa
=16	=16	=16	=16
2r	4g	4gg	4gg
.	4r	4r	4r
4BB	4G	4d	8g
.	.	.	8dd
=17	=17	=17	=17
4C	4G	4e	8dd
.	.	.	8cc
4r	4r	4r	8cc
.	.	.	8b
4D	4F#	4c	8b
.	.	.	8a
=18	=18	=18	=18
4E	4G	4B	8a
.	.	.	8g
4r	4r	4r	8g
.	.	.	8dd
4BB	4G	4d	8dd
.	.	.	8cc
=19	=19	=19	=19
4C	4G	4e	8cc
.	.	.	8b
4r	4r	4r	8b
.	.	.	8a
4D	4F#	4c	8a
.	.	.	8g
=20	=20	=20	=20
4GG	4G	4B	4g
4r	4r	4r	4r
8F#	8f#	8f#	8f#
8G	8g	8g	8g
=21	=21	=21	=21
8G#	8g#	8g#	8g#
8A	8a	8a	8a
8B-	8b-	8b-	8b-
8A	8a	8a	8a
8G	8g	8g	8g
8E	8e	8e	8e
=22	=22	=22	=22
4D	4d	4d	4d
4D	4d	4d	4d
4D	4d	4d	4d
=23	=23	=23	=23
4G	4g	4g	4g
4G	4g	4g	4g
4G	4g	4g	4g
=24	=24	=24	=24
[2.BB-	2.B-	2.B-	4B-
.	.	.	4r
.	.	.	8cc#
.	.	.	8dd
=25	=25	=25	=25
2.BB-]	2d	[2.dd	8ee-
.	.	.	8ee
.	.	.	8ff
.	.	.	8ff#
.	4e	.	8gg
.	.	.	8gg#
=26	=26	=26	=26
4AA	4f	4dd]	4aa
2r	4f 4A	4dd	4aa
.	4f 4A	4dd	4aa
=27	=27	=27	=27
2r	4e 4A	4g	4cc#
.	4e 4A	4g	4cc#
8F#	4e 4A	4g	4cc#
8G	.	.	.
=28	=28	=28	=28
8G#	[2.d	2f#	[2.cc
8A	.	.	.
8B-	.	.	.
8A	.	.	.
8F#	.	8a	.
8D	.	8f#	.
=29	=29	=29	=29
4G	4d]	4g	4cc]
4r	2r	2r	4b
8E	.	.	4g
8F	.	.	.
=30	=30	=30	=30
8F#	[2.c	2e	[2.b-
8G	.	.	.
8A	.	.	.
8G	.	.	.
8E	.	8g	.
8C	.	8e	.
=31	=31	=31	=31
4F	4c]	4f	4b-]
2r	2r	2r	4a
.	.	.	8ff
.	.	.	8gg
=32	=32	=32	=32
2.r	2f	2cc	8gg#
.	.	.	8aa
.	.	.	8bb-
.	.	.	8aa
.	4c#	4b-	8gg
.	.	.	8ee
=33	=33	=33	=33
2.r	2d	2a	8ee
.	.	.	8ff
.	.	.	8gg
.	.	.	8ff
.	4e	4g	8ee
.	.	.	8cc#
=34	=34	=34	=34
4r	4f	2a	8cc#
.	.	.	8dd
4F	4d	.	8ee
.	.	.	8dd
4F#	4d	8A	8cc
.	.	8c	8a
=35	=35	=35	=35
4G	4d	4B	2.g
4GG	4r	4r	.
4r	8B	8d	.
.	8c	8e-	.
=36	=36	=36	=36
4r	8c#	8e	2.g
.	8d	8f	.
4BB	8e	8g	.
.	8d	8f	.
4C	8c	8e	.
.	8A	8c	.
=37	=37	=37	=37
4GG	4B	4d	4g
4G	4r	4r	4gg
4r	8b	8dd	4gg
.	8cc	8ee-	.
=38	=38	=38	=38
4r	8cc#	8ee	[2.gg
.	8dd	8ff	.
4B	8ee	8gg	.
.	8dd	8ff	.
4c	8cc	8ee	.
.	8a	8cc	.
=39	=39	=39	=39
4G	4b	4dd	8gg]
.	.	.	8ff#
2r	2r	4r	8gg
.	.	.	8ff
.	.	8cc	8ee
.	.	8dd	8ff
=40	=40	=40	=40
2.r	2r	8dd#	8ff#
.	.	8ee	8gg
.	.	8ff	8aa
.	.	8ee	8gg
.	8f#	8dd	8ff
.	8g	8b	8dd
=41	=41	=41	=41
2r	8g#	4cc	4cc
.	8a	.	.
.	8b-	4e	4cc
.	8a	.	.
8BB	8g	4e	4cc
8C	8e	.	.
=42	=42	=42	=42
8C#	4d	4A	4ff
8D	.	.	.
8E	4d	4A	4ff
8D	.	.	.
8C	4d	4A	4ff
8AA	.	.	.
=43	=43	=43	=43
4GG	4d	4B	4f
4r	4r	4r	4r
8BB	8B	8B	8B
8GG	8G	8G	8G
=44	=44	=44	=44
8C	8c	8c	8c
8GG	8G	8G	8G
8D	8d	8d	8d
8GG	8G	8G	8G
8E	8e	8e	8e
8GG	8G	8G	8G
=45	=45	=45	=45
4F	4f	4f	4f
2r	2r	4r	4r
.	.	4f	8b
.	.	.	8g
=46	=46	=46	=46
2.r	2.r	4e	8cc
.	.	.	8g
.	.	4d	8dd
.	.	.	8g
.	.	4c	8ee
.	.	.	8g
=47	=47	=47	=47
2.r	2.r	2B	8gg
.	.	.	8ff#
.	.	.	8ff
.	.	.	8dd
.	.	4c	8ee
.	.	.	8cc
=48	=48	=48	=48
2.r	2.r	8cc	4c
.	.	8b	.
.	.	8b-	4ee
.	.	8g	.
.	.	8a	4ff
.	.	8f	.
=49	=49	=49	=49
2.r	8a	4r	4a
.	8g#	.	.
.	8g	8ee	4ccc#
.	8e	8gg	.
.	8f#	4ff#	4ddd
.	8d	.	.
=50	=50	=50	=50
8G	4G	4r	4g
8F#	.	.	.
8F	4g	8dd	4bb
8D	.	8ff	.
8E	4g	4ee	4ccc
8C	.	.	.
=51	=51	=51	=51
2.FF	[2.A	[2.c	[2.d
=52	=52	=52	=52
4FF#	4A]	4c]	8d]
.	.	.	8e
2r	2r	2r	8f#
.	.	.	8g
.	.	.	8a
.	.	.	8b
=53	=53	=53	=53
4GG	4c	4e	8cc
.	.	.	8dd
2r	2r	2r	8ee
.	.	.	8ff
.	.	.	8gg
.	.	.	8aa
=54	=54	=54	=54
2.r	4g	8ee	8gg
.	.	8dd#	8ff#
.	4g	8dd	8ff
.	.	8cc#	8ee
.	4g	8dd	8ff
.	.	8b	8dd
=55	=55	=55	=55
2r	4c	4cc	4cc
.	4r	4r	4r
4E	4c	4g	8cc
.	.	.	8gg
=56	=56	=56	=56
4F	4c	4a	8gg
.	.	.	8ff
4r	4r	4r	8ff
.	.	.	8ee
4G	4B	4f	8ee
.	.	.	8dd
=57	=57	=57	=57
4A	4c	4e	8dd
.	.	.	8cc
4r	4r	4r	8cc
.	.	.	8gg
4E	4c	4g	8gg
.	.	.	8ff
=58	=58	=58	=58
4F	4c	4a	8ff
.	.	.	8ee
4r	4r	4r	8ee
.	.	.	8dd
4G	4B	4f	8dd
.	.	.	8cc
=59	=59	=59	=59
4C	4c	4e	2cc
4r	4r	4r	.
4EE	4c	8c	4gg
.	.	8g	.
=60	=60	=60	=60
4FF	4A	8g	2aa
.	.	8f	.
4r	4r	8f	.
.	.	8e	.
4GG	4F	8e	4bb
.	.	8d	.
=61	=61	=61	=61
4AA	4E	8d	2ccc
.	.	8c	.
4r	4r	8c	.
.	.	8g	.
4EE	8B-	8g	4gg
.	8A	8f	.
=62	=62	=62	=62
4FF	8A	8f	4aa
.	8G	8e	.
4DD	8G	8e	4aa
.	8F	8d	.
4GG	8F	8d	8bb
.	8E	8c	16aa
.	.	.	16bb
=63	=63	=63	=63
4CC	4E	4c	4ccc
2r	2r	2r	4r
.	.	.	4g
=64	=64	=64	=64
4r	8e-	8g	4cc
.	8c	8e-	.
4C	8e-	8g	4r
.	8e-	8g	.
4r	8e-	8g	4ee-
.	8e-	8g	.
=65	=65	=65	=65
4r	8e-	8g	4gg
.	8c	8e-	.
4C	8e-	8g	4r
.	8e-	8g	.
4r	8e-	8g	4ccc
.	8e-	8g	.
=66	=66	=66	=66
4r	8e-	8g	2eee-
.	8c	8e-	.
4C	8e-	8g	.
.	8e-	8g	.
4CC	8e-	8g	8ddd
.	8e-	8g	8ccc
=67	=67	=67	=67
4GG	8d	8g	4bb
.	8B	8d	.
4G	8d	8g	4r
.	8d	8g	.
4r	8d	8g	4ddd
.	8d	8g	.
=68	=68	=68	=68
4r	8d	8b	4ff
.	8B	8g	.
4G	8d	8b	4r
.	8d	8b	.
4r	8d	8b	4aa-
.	8d	8b	.
=69	=69	=69	=69
4r	8d	8f	4b
.	8G	8d	.
4GG	8d	8f	4r
.	8d	8f	.
4r	8d	8f	4B
.	8d	8f	.
=70	=70	=70	=70
4r	8B	8d	2a-
.	8G	8B	.
4G	8B	8d	.
.	8B	8d	.
4GG	8B	8d	8g
.	8B	8d	8f
=71	=71	=71	=71
4C	4c	8c	4e-
.	.	8e-	.
4c	2r	8d	4r
.	.	8e-	.
4r	.	8f	4ee-
.	.	8e-	.
=72	=72	=72	=72
2.r	2d-	8e-	2g
.	.	8d	.
.	.	8e-	.
.	.	8e-	.
.	4c	8e-	4a-
.	.	8e-	.
=73	=73	=73	=73
2.r	2G	8e-	2dd-
.	.	8d	.
.	.	8e-	.
.	.	8e-	.
.	8A-	8e-	8cc
.	8c	8e-	8a-
=74	=74	=74	=74
2.r	4d-	8e-	4g
.	.	8d	.
.	4d-	8e-	4g
.	.	8e-	.
.	8c	8e-	4a-
.	8A-	8e-	.
=75	=75	=75	=75
2.r	4G	8e-	4dd-
.	.	8d	.
.	4G	8e-	8ee-
.	.	8e-	8dd-
.	8A-	8e-	8cc
.	8c	8e-	8a-
=76	=76	=76	=76
2r	8B-	8e-	4g
.	8G	8B-	.
.	8e-	8g	4b-
.	8e-	8g	.
4BB-	8e-	8g	4ee-
.	8e-	8g	.
=77	=77	=77	=77
4E-	8e-	8g	4gg
.	8B-	8e-	.
4r	8g	8ee-	4bb-
.	8g	8ee-	.
4G	8g	8ee-	4eee-
.	8g	8ee-	.
=78	=78	=78	=78
4B-	8g	8ee-	4.bb-
.	8e-	8gg	.
4r	8d	8b-	.
.	8e-	8b-	8aa
4d	8f	8b-	8aa-
.	8a-	8b-	8ff
=79	=79	=79	=79
4e-	4g	4b-	4ee-
2r	2r	2r	4r
.	.	.	4bb-
=80	=80	=80	=80
4r	8g	8b-	4ee
.	8e	8g	.
4d-	8g	8b-	4r
.	8g	8b-	.
4r	8g	8b-	4gg
.	8g	8b-	.
=81	=81	=81	=81
4r	8e	8g	4b-
.	8G	8e	.
4E	8B-	8g	4r
.	8B-	8g	.
4r	8B-	8g	4e
.	8B-	8g	.
=82	=82	=82	=82
4r	8E	8G	2dd-
.	8G	8B-	.
4C	8E	8G	.
.	8E	8G	.
4CC	8E	8G	8cc
.	8E	8G	8b-
=83	=83	=83	=83
4FF	8F	8A-	4a-
.	8A-	8c	.
4F	8c	8a-	4r
.	8c	8a-	.
4r	8c	8a-	4ccc
.	8c	8a-	.
=84	=84	=84	=84
4r	8a	8cc	4ff#
.	8c	8a	.
4e-	8a	8cc	4r
.	8a	8cc	.
4r	8a	8cc	4aa
.	8a	8cc	.
=85	=85	=85	=85
4r	8f#	8a	4cc
.	8A	8f#	.
4F#	8c	8a	4r
.	8c	8a	.
4r	8c	8a	4f#
.	8c	8a	.
=86	=86	=86	=86
4r	8F#	8A	2ee-
.	8A	8c	.
4D	8F#	8A	.
.	8F#	8A	.
4DD	8F#	8A	8dd
.	8F#	8A	8cc
=87	=87	=87	=87
4GG	4G	8G	4b
.	.	8g	.
4G	2r	8f#	4r
.	.	8g	.
4G	.	8e-	4gg
.	.	8c	.
=88	=88	=88	=88
4G	4d	4B	8ff#
.	.	.	8gg
4G	4B	4r	8aa-
.	.	.	8gg
4G	8c	4g	8ee-
.	8e-	.	8cc
=89	=89	=89	=89
4G	4d	8f#	4b
.	.	8g	.
4GG	4B	8a-	4dd
.	.	8g	.
4GG	8c	8e-	4gg
.	8E-	8c	.
=90	=90	=90	=90
4GG	4D	4B	8aa-
.	.	.	8gg
4G	4B	4d	8ff#
.	.	.	8gg
4G	8c	4g	8ee-
.	8e-	.	8cc
=91	=91	=91	=91
4G	4d	8a-	4b
.	.	8g	.
4GG	4B	8f#	4dd
.	.	8g	.
4GG	8d	8f	4r
.	8B	8d	.
=92	=92	=92	=92
4C	8c	8e-	4r
.	8G	8c	.
4r	8c	8g	4ee-
.	8c	8g	.
4E-	8c	8g	4gg
.	8c	8g	.
=93	=93	=93	=93
4G	8e-	8cc	4r
.	8c	8g	.
4r	8g	8ee-	4ccc
.	8g	8ee-	.
4c	8g	8ee-	4eee-
.	8g	8ee-	.
=94	=94	=94	=94
2e-	8a	8cc	4r
.	8f#	8a	.
.	8a	8cc	4ff#
.	8a	8cc	.
8d	8a	8cc	4fff#
8c	8a	8cc	.
=95	=95	=95	=95
4B	8g	8dd	4r
.	8d	8b	.
4r	8b	8gg	4ggg
.	8b	8gg	.
4f	8b	8gg	4ddd
.	8b	8gg	.
=96	=96	=96	=96
4B	8d	8ff	4r
.	8f	8dd	.
4r	8a-	8ff	4fff
.	8a-	8ff	.
4d	8a-	8ff	4bb
.	8a-	8ff	.
=97	=97	=97	=97
4F	8a-	8dd	4r
.	8B	8d	.
4r	8d	8a-	4ddd
.	8d	8a-	.
4BB	8d	8a-	4ff
.	8d	8a-	.
=98	=98	=98	=98
2A-	8d	8f	4r
.	8B	8d	.
.	8d	8f	4b
.	8d	8f	.
8G	8d	8f	4bb
8F	8d	8f	.
=99	=99	=99	=99
2.E	8d-	8g	4r
.	8G	8B-	.
.	8c	8g	4b-
.	8c	8g	.
.	8c	8g	[4bb-
.	8c	8g	.
=100	=100	=100	=100
2F	[2.c	2f	4bb-]
.	.	.	4aa-
4G	.	4e	[4gg
=101	=101	=101	=101
2A	2c]	[2.cc	4gg]
.	.	.	4ff
4A-	4d	.	[4ff#
=102	=102	=102	=102
4G	4e-	4cc]	4ff#]
4r	4r	4r	4gg
4GG	4d	4f	4b
=103	=103	=103	=103
4CC	4c	4e-	4cc
4C	2r	2r	2r
4r	.	.	.
==	==	==	==
*-	*-	*-	*-
!!!RWG1: This file contains only pitch and duration data.
!!!RWG2: Transposing instruments are not transposed.
!!!RWG3: Spines may have incompatible meters.
!!!RWG4: Durations of rests and tied notes may be interpreted.
!!!RWG: Key is interpreted using the Humdrum key tool.
!!!AFT: stage1
!!!END: 1997/04/15
!!!KEY: 1786209818
!!!EMD: Converted from MuseData to Humdrum Dec 16, 2000, by Andreas Kornstaedt using muse2kern.
!!!EMD: Manual editing by Craig Sapp, Nov 2001
